UI/POI/SVG/inclined_outline_24px.svg

<svg width="24" height="24" viewBox="0 0 24 24" fill="none" xmlns="http://www.w3.org/2000/svg">
<path d="M22 16L2.00004 22V20L22 14V16ZM20 4L4.05004 8.79C4.01695 8.85504 3.99981 8.92702 4.00004 9V15.31L20 10.51V4ZM20 2C20.5305 2 21.0392 2.21071 21.4143 2.58579C21.7893 2.96086 22 3.46957 22 4V12L2.00004 18V9C1.979 8.54113 2.10688 8.08775 2.36459 7.70749C2.6223 7.32724 2.99603 7.04048 3.43004 6.89L19.43 2.09C19.6147 2.0326 19.8067 2.00229 20 2ZM6.00004 11.2V13.2L11 11.7V9.7L6.00004 11.2ZM13 9.09V11.09L18 9.59V7.59L13 9.09Z" fill="#0F1621"/>
</svg>

<svg xmlns="http://www.w3.org/2000/svg" width="24" height="24" viewBox="0 0 24 24"><rect width="24" height="24" style="fill:none"/><path d="M22,16,2,22V20l20-6ZM20,4,4.05,8.79A.46.46,0,0,0,4,9v6.31l16-4.8V4m0-2a2,2,0,0,1,2,2v8L2,18V9A2.13,2.13,0,0,1,3.43,6.89l16-4.8A2,2,0,0,1,20,2ZM6,11.2v2l5-1.5v-2Zm7-2.11v2l5-1.5v-2Z"/></svg>
